!!!OTL: PROSALUTE HORUM AMICORUM
!!!ARE: Europa, Mitteleuropa, Deutschland
!!!SCT: F0510
!!!YEM: Copyright 1995, estate of Helmut Schaffrath.
**kern
*ICvox
*Ivox
*M2/4
*k[f#]
*G:
=1
{4.g
8b
=2
4.a
8cc
=3
8dd
8cc
8b
8a
=4
4b
8a
8r}
=5
{4.g
8b
=6
4.a
8cc
=7
8dd
8cc
8b
8a
=8
4b
4r}
=9
{4.g
8b
=10
4.a
8cc
=11
8dd
8cc
8b
8a
=12
4b
8a
8r}
=13
{4.g
8b
=14
4.a
8cc
=15
8dd
8cc
8b
8a
=16
4b
4r}
=17
{8dd
8dd
8dd
8dd
=18
4ee
4ee
=19
8cc
8cc
4cc
=20
8ee
8dd
4dd}
=21
{8g
8a
8b
8cc
=22
4.dd
8cc
=23
4b
4a
=24
4g
4r}
=25
{8dd
8dd
8dd
8dd
=26
4ee
4ee
=27
8cc
8cc
4cc
=28
8ee
8dd
4dd}
=29
{8g
8a
8b
8cc
=30
4.dd
8cc
=31
4b
4a
=32
4g
8r}
{8d
=33
8.g
16g
8g
8g
=34
8f#
8e
4d}
=35
{8.g
16g
8g
8g
=36
8f#
8a
8d}
{8d
=37
4g
8g
8g
=38
8f#
8a
8dd}
{8d
=39
4g
8g
8g
=40
8f#
8a
4dd}
=41
{8b
8a
8b
8cc
=42
4.dd
8cc
=43
4b
4a
=44
4g
4r}
=45
{8.g
16g
8g
8g
=46
8f#
8a
4d}
=47
{4dd
8b
8r
=48
8.dd
16b
8b
8r
=49
2dd
=50
4.b
8r}
=51
{8g
8a
8b
8cc
=52
4.dd
8cc
=53
4b
4a
=54
4g
4r}
=55
{8gg
16ff#
16ee
8dd
8cc#
=56
4.dd
8cc
=57
4b
4a
=58
4g
4r}
==
!!!AGN: Studenten -, Trink - Lied, Trinkspruch
!!!ONB: ESAC (Essen Associative Code) Database: FINK
!!!AMT: simple duple
!!!AIN: vox
!!!EED: Helmut Schaffrath
!!!EEV: 1.0
*-
